!!!!SEGMENT: pl-wnifc--13846--146_anonim--piesni-polskie-i-ruskie-ludu-galicyjskiego-146-oj-semene-semene.krn
!!!kernsource:
!!!cenid: 18xx:3368
!!!COM: Anonim
!!!COM-rismID: pe30004985
!!!CDT:
!!!CNT:
!!!GTL: Pieśni polskie i ruskie ludu galicyjskiego
!!!OTL: 146. Oj Semene, Semene
!!!PDT: 1833
!!!AGN:
!!!SMS-siglum: PL-Wnifc
!!!SMS-shelfmark: 13846
!!!SMS-shelfwork: 146 G
!!!NIFC-rismSourceID: 1001039679
!!!NIFC-rismChildID: 1001039679
!!!NIFC-islandoraID:
!!!URL-pdf-islandora:
!!!URL-scan:
!!!ONB-nifc:
!!!OMD: Alleretto
!!!AIN: 2 empty
!!!key:
**kern	**kern	**dynam	**kern	**text
*part2	*part2	*part2	*part1	*part1
*staff3	*staff2	*	*staff1	*staff1
*clefF4	*clefG2	*	*clefG2	*
*Iempty	*Iempty	*	*Iempty	*
*I"	*I"	*	*I"	*
*k[b-e-]	*k[b-e-]	*	*k[b-e-]	*
*B-:	*B-:	*	*B-:	*
*M2/4	*M2/4	*	*M2/4	*
=1	=1	=1	=1	=1-
4B-/ 4F/ [4BB-^/	8f/L 8d/`	.	8f/	Oj
.	8b-/J 8f/`	.	8b-/	Se-
4B-/ 4F/ 4BB-^/]	8.dd/L 8.b-/ 8.f/`	sf	8.dd/	-me-
.	16b-/Jk 16d/`	.	16b-/	-ne,
=2	=2	=2	=2	=2
4A/ 4F/ [4BB-^/	8cc/L 8e-/`	.	8cc\	Se-
.	(>8cc/J 8e-/`	.	8cc\	-me-
4B-/ 4F/ 4BB-^/]	4b-/ 4d/^)	.	4b-\	-ne,
!!LO:LB:g=original
=3	=3	=3	=3	=3
*	*^	*	*	*
(4B-/ 4F/ 4BB-^/	8f/L	8d\L	.	8f/	na
.	8b-/J	8f\J	.	8b-/	cho-
4B-/ 4F/ 4BB-^/	8.dd/L 8.f/	4ryy	.	8.dd\	-dy
.	16b-/Jk 16d/	.	.	16b-\	ty
*	*v	*v	*	*	*
=4	=4	=4	=4	=4
4A/ 4F/ 4BB-^/	8cc/L 8e-/`	.	8cc\	do
.	8cc/J 8e-/`	.	8cc\	me-
4B-/ 4F/ 4BB-^/)	4b-/ 4d/^	.	4b-\	-ne,
=5|:	=5|:	=5|:	=5|:	=5|:
8A\`L	8cc\L 8f\`	.	8cc\	bo
8F\`	8cc\ 8f\`	.	8cc\	u
8B-\`	8dd\ 8f\`	.	8dd\	me-
8F\`J	8dd\J 8f\`	.	8dd\	-ne
!!LO:PB:g=original
=6	=6	=6	=6	=6
8c\`L	8ee-\L 8f\	.	8ee-\	czor-
8F\`	8ee-\J 8f\	.	8ee-\	-nyj
8B-\`	4dd\ 4f\^	.	4dd\	pes,
8F\`J	.	.	.	.
=7	=7	=7	=7	=7
*^	*	*	*	*
8A/`L	4ryy	8cc\L 8f\`	.	8cc\	jak
8F/`J	.	8cc\J 8f\`	.	8cc\	tia
4B-/	(>8BB-\L	8.dd\L 8.f^\	.	8.dd\	wku-
.	8D\J)	.	.	.	.
.	.	16b-\Jk 16f\`	.	16b-\	-syt
=8	=8	=8	=8	=8	=8
(4A/	(4F\	8cc/L 8e-/	.	8cc\	to
.	.	8cc/J 8e-/	.	8cc\	u
4B-/)	4F\ 4BB-\)	4b-/ 4d/	.	4b-\	mresz
*v	*v	*	*	*	*
==	==	==	==	==
*-	*-	*-	*-	*-
!!!system-decoration: s1,[(s2,s3)]
!!!RDF**kern: > = above
!!!RDF**kern: < = below
!!!ENC: Leszek Kubiak
!!!END: 2021-11-12
!!!YEC: Copyright 2022 Narodowy Instytut Fryderyka Chopina (https://polishscores.org)
!!!YEM: License CC-BY-4.0 (https://creativecommons.org/licenses/by/4.0)
